src/assets/duotone/Devices.svg

<?xml version="1.0" encoding="UTF-8"?>
<svg width="24" height="24" viewBox="0 0 24 24" xmlns="http://www.w3.org/2000/svg">
 <path d="m16 2h-10c-3.2 0-4 0.8-4 4v5.9c0.03 3.03 0.87 3.8 4 3.8h2.25v3.55h-3.3c-0.41 0-0.75 0.34-0.75 0.75s0.34 0.75 0.75 0.75h7.3c-0.15-0.39-0.22-0.88-0.23-1.5h-2.27v-3.55h2.27v-5.11c0-2.14 0.71-2.85 2.85-2.85h4.28c0.31 0 0.6 0.01999 0.85 0.04999v-1.79c0-3.2-0.8-4-4-4z" opacity=".4"/>
 <path d="m20 7.7902c-0.25-0.03-0.54-0.04999-0.85-0.04999h-4.28c-2.14 0-2.85 0.71004-2.85 2.8501v8.6599c0.01 0.62 0.08 1.11 0.23 1.5 0.35 0.91 1.14 1.25 2.62 1.25h4.28c2.14 0 2.85-0.7099 2.85-2.8499v-8.56c0-1.83-0.52-2.6101-2-2.8001zm-2.99 2.3001c0.87 0 1.57 0.6999 1.57 1.5699s-0.7 1.57-1.57 1.57-1.57-0.7-1.57-1.57 0.7-1.5699 1.57-1.5699zm0 9.06c-1.18 0-2.14-0.96-2.14-2.14 0-0.49 0.17-0.95 0.45-1.31 0.39-0.5 1-0.8301 1.69-0.8301 0.54 0 1.03 0.2001 1.4 0.5201 0.45 0.4 0.74 0.98 0.74 1.62 0 1.18-0.96 2.14-2.14 2.14z"/>
 <path d="m19.15 17.01c0 1.18-0.96 2.14-2.14 2.14s-2.14-0.96-2.14-2.14c0-0.49 0.17-0.95 0.45-1.31 0.39-0.5 1-0.83 1.69-0.83 0.54 0 1.03 0.2 1.4 0.52 0.45 0.4 0.74 0.98 0.74 1.62z" opacity=".4"/>
 <path d="m17.01 13.23c0.8671 0 1.57-0.7029 1.57-1.57s-0.7029-1.57-1.57-1.57c-0.867 0-1.57 0.7029-1.57 1.57s0.703 1.57 1.57 1.57z" opacity=".4"/>
</svg>

<svg width="24" height="24" viewBox="0 0 24 24"  xmlns="http://www.w3.org/2000/svg">
<path opacity="0.4" d="M16 2H6C2.8 2 2 2.8 2 6V11.9C2.03 14.93 2.87 15.7 6 15.7H8.25V19.25H4.95001C4.54001 19.25 4.20001 19.59 4.20001 20C4.20001 20.41 4.54001 20.75 4.95001 20.75H12.25C12.1 20.36 12.03 19.87 12.02 19.25H9.75V15.7H12.02V11.9V10.59C12.02 8.45003 12.73 7.73999 14.87 7.73999H19.15C19.46 7.73999 19.75 7.75998 20 7.78998V6C20 2.8 19.2 2 16 2Z" />
<path d="M20 7.79022C19.75 7.76022 19.46 7.74023 19.15 7.74023H14.87C12.73 7.74023 12.02 8.45027 12.02 10.5903V19.2502C12.03 19.8702 12.1 20.3602 12.25 20.7502C12.6 21.6602 13.39 22.0002 14.87 22.0002H19.15C21.29 22.0002 22 21.2903 22 19.1503V10.5903C22 8.76027 21.48 7.98022 20 7.79022ZM17.01 10.0903C17.88 10.0903 18.58 10.7902 18.58 11.6602C18.58 12.5302 17.88 13.2302 17.01 13.2302C16.14 13.2302 15.44 12.5302 15.44 11.6602C15.44 10.7902 16.14 10.0903 17.01 10.0903ZM17.01 19.1503C15.83 19.1503 14.87 18.1903 14.87 17.0103C14.87 16.5203 15.04 16.0603 15.32 15.7003C15.71 15.2003 16.32 14.8702 17.01 14.8702C17.55 14.8702 18.04 15.0703 18.41 15.3903C18.86 15.7903 19.15 16.3703 19.15 17.0103C19.15 18.1903 18.19 19.1503 17.01 19.1503Z" />
<path opacity="0.4" d="M19.1501 17.0101C19.1501 18.1901 18.1901 19.1501 17.0101 19.1501C15.8301 19.1501 14.8701 18.1901 14.8701 17.0101C14.8701 16.5201 15.0401 16.0601 15.3201 15.7001C15.7101 15.2001 16.3201 14.8701 17.0101 14.8701C17.5501 14.8701 18.0401 15.0701 18.4101 15.3901C18.8601 15.7901 19.1501 16.3701 19.1501 17.0101Z" />
<path opacity="0.4" d="M17.0099 13.2298C17.877 13.2298 18.5799 12.5269 18.5799 11.6598C18.5799 10.7927 17.877 10.0898 17.0099 10.0898C16.1429 10.0898 15.4399 10.7927 15.4399 11.6598C15.4399 12.5269 16.1429 13.2298 17.0099 13.2298Z" />
</svg>
